X: 20172
T: Job Of Journeywork, The
R: hornpipe
M: 4/4
K: Dmajor
|:fe|dcAG FGAB|=cABG A2fe|d2dA BdAG|FGEF DEFG|
A2AF GFEF|D2FD DEFG|A2d2 cdec|d2dc d2:|
|:de|~f2fd gfec|dedc A2de|~f2fd gfec|
Addc defg|a2ag faec|dcde fdec|
dcAG FGAB|=cABG A2fe|d2dA BdAG|FGEF DEFG|
A2AF GFEF|D2FD DEFG|A2d2 cdec|d2dc d2:|

